icons/treated_water_fill.svg

<svg width="48" height="48" viewBox="0 0 48 48" fill="none" xmlns="http://www.w3.org/2000/svg">
<path fill-rule="evenodd" clip-rule="evenodd" d="M25.5984 29L26 28.581V25H24V29H22V25H20V29H18V25H16V28.581L16.4016 29H11.7143C10.7675 29 10 29.7675 10 30.7143V32.1894C12.3439 33.5483 14.6877 33.2233 17.0316 31.2142C19.8279 33.6111 22.6242 33.6111 25.4205 31.2142C27.6137 33.0947 29.8068 33.4993 32 32.4304V30.7143C32 29.7675 31.2325 29 30.2857 29H25.5984ZM29 40.2024V41.9999H31V40.0763C32.7252 39.6323 34 38.0662 34 36.2023V33.0119H35.5059C36.0582 33.0119 36.5059 33.4596 36.5059 34.0119V35.7084H41V34.5178C41 31.5807 38.8896 29.1365 36.1025 28.6189H39.2024V26.6189H34.7083V28.5178H33.2813C33.0323 28.1789 32.7272 27.8837 32.3797 27.6461C31.7835 27.2384 31.0625 27 30.2857 27C30.2857 27 30.969 26.2871 31.7494 25.1892C32.7886 23.7273 34 21.5828 34 19.5296V5.64258H8V19.5296C8 21.5828 9.2114 23.7273 10.2506 25.1892C11.031 26.2871 11.7143 27 11.7143 27C10.9375 27 10.2165 27.2384 9.62029 27.6461C8.64201 28.3151 8 29.4397 8 30.7143V36.2023C8 38.0662 9.27477 39.6323 11 40.0763V41.9999H13V40.2024H29ZM32 15.1479V7.64258H10V15C18.4642 16.3973 23.4546 16.3851 32 15.1479ZM39.5 42C40.3284 42 41 41.186 41 40.1818C41 38.5909 39.5 37 39.5 37C39.5 37 38 38.5909 38 40.1818C38 41.186 38.6716 42 39.5 42Z" fill="black"/>
</svg>

<svg
  xmlns="http://www.w3.org/2000/svg"
  width="24"
  height="24"
  viewBox="0 0 24 24"
  fill="none"
  stroke="currentColor"
  stroke-width="2"
  stroke-linecap="round"
  stroke-linejoin="round"
>
  <path
    fill-rule="evenodd"
    d="m25.598 29 .402-.419V25h-2v4h-2v-4h-2v4h-2v-4h-2v3.581l.402.419h-4.688c-.947 0-1.714.767-1.714 1.714v1.475q3.516 2.04 7.032-.975 4.194 3.596 8.389 0 3.29 2.82 6.579 1.216v-1.716c0-.947-.767-1.714-1.714-1.714zM29 40.202V42h2v-1.924c1.725-.444 3-2.01 3-3.874v-3.19h1.506a1 1 0 0 1 1 1v1.696H41v-1.19a6 6 0 0 0-4.898-5.9h3.1v-2h-4.494v1.9h-1.427a3.7 3.7 0 0 0-.901-.872A3.7 3.7 0 0 0 30.286 27s.683-.713 1.463-1.81C32.79 23.726 34 21.582 34 19.53V5.643H8V19.53c0 2.053 1.211 4.197 2.25 5.66A18 18 0 0 0 11.715 27 3.71 3.71 0 0 0 8 30.714v5.488a4 4 0 0 0 3 3.874V42h2v-1.798zm3-25.054V7.643H10V15c8.464 1.397 13.455 1.385 22 .148M39.5 42c.828 0 1.5-.814 1.5-1.818C41 38.59 39.5 37 39.5 37S38 38.59 38 40.182c0 1.004.672 1.818 1.5 1.818"
    clip-rule="evenodd"
  />
</svg>
